X:1
T:Let Him In
T:Let Him In
T:Edwin Othello Excell
T:Jonathan Burtch Atchinson, 1885
T:Public Domain Courtesy of the Cyber Hymnal™
T:Public Domain Courtesy of the Cyber Hymnal™
C:Edwin Othello Excell
Z:Public Domain
Z:Courtesy of the Cyber Hymnal™
%%score ( 1 2 ) ( 3 4 )
L:1/8
Q:1/4=110
M:4/4
K:Db
V:1 treble 
V:2 treble 
V:3 bass 
V:4 bass 
V:1
 [DF][EG] | [FA]2 [Af]2 [Ad]2 [GB]2 | [FA]6 z2 | A6 E2 B2 | A6 | [DF][EG] | %6
w: 1.~There’s a|strang- er at the|door,|Let Him in;||He has|
w: 2.~O- pen|now to Him your|heart,|Let Him in;||If you|
w: 3.~Hear you|now His lov- ing|voice?|Let Him in;||Now, oh,|
w: 4.~Now ad-|mit the heav- ’nly|guest,|Let Him in;||He will|
 [FA]2 [Af]2 [Ad]2 [GB]2 | [FA]6 | A6 x2 | A6 | [FA][FA] | [GB]2 [Bd]2 [Ac]2 [GB]2 | %12
w: been there oft be-|fore,|Let|Him|in; Let|Him in, ere He|
w: wait He will de-|part,|Let|Him|in; Let|Him in, He is|
w: now make Him your|choice,|Let|Him|in; He|is stand- ing at|
w: make for you a|feast,|Let|Him|in; He|will speak your sins|
 [FA]6 [DF][EG] | [FA]2 [Fd]2 [Ac]2 [=Gd]2 | [Ae]6 [Af][Ae] | [Fd]2 [FA]2 [GB]2 [GB]2 | [FA]6 z2 | %17
w: is gone; Let|Him in, the Ho-|ly One, Je-|sus Christ the Fa-|ther’s|
w: your friend; He|your soul will sure|de- fend, He|will keep you to|the|
w: your door; Joy|to you He will|re- store, And|His name you will|a-|
w: for- giv’n, And|when earth ties all|are riv’n, He|will take you home|to|
 A6 x2 | d6 |] %19
w: Son,|Let|
w: end,|Let|
w: dore,|Let|
w: Heav’n,|Let|
V:2
 x2 | x8 | x8 | GGCD x6 | (FFDE F2) | x2 | x8 | x6 | (GGCD E2) (Bc) | (F=EGG F2) | x2 | x8 | x8 | %13
 x8 | x8 | x8 | x8 | (GGCD E2) (Bc) | (F=EGG F2) |] %19
V:3
 [D,A,][D,A,] | [D,D]2 [D,D]2 [F,D]2 [G,D]2 | (D2 A,4) z2 | %3
 ([A,,A,][A,,A,][A,,E,][A,,F,] [A,,G,]4) x2 | ([D,A,][D,A,][D,F,][D,G,] [D,A,]2) | [D,A,][D,A,] | %6
 [D,D]2 [D,D]2 [F,D]2 [G,D]2 | (D2 A,4) | ([A,,A,][A,,A,][A,,E,][A,,F,] [A,,G,]4) | %9
 ([D,A,][D,=G,][D,B,][D,B,] [D,A,]2) | [D,D][D,D] | [G,D]2 [G,D]2 [G,D]2 [G,D]2 | %12
 [D,D]6 [D,A,][D,A,] | [D,D]2 [D,A,]2 [E,A,]2 [D,A,]2 | [A,C]6 [A,C][A,C] | %15
 [D,D]2 [D,D]2 [G,D]2 [G,D]2 | (D2 A,4) z2 | ([A,,A,][A,,A,][A,,E,][A,,F,] [A,,F,]4) | %18
 ([D,A,][D,=G,][D,B,][D,B,] [D,A,]2) |] %19
V:4
 x2 | x8 | D,6 x2 | x10 | x6 | x2 | x8 | D,6 | x8 | x6 | x2 | x8 | x8 | x8 | x8 | x8 | D,6 x2 | %17
 x8 | x6 |] %19

